pragma-ui/public/assets/currencies/wsteth.svg

<svg width="19" height="26" viewBox="0 0 19 26" fill="none" xmlns="http://www.w3.org/2000/svg">
<g clip-path="url(#clip0_145_45)">
<path d="M1.69998 11.7L1.49998 12C-0.800017 15.6 -0.300018 20.3 2.79998 23.3C4.49998 25.1 6.89998 26 9.29998 26C9.29998 26 9.29998 26 1.69998 11.7Z" fill="#B5F0E5"/>
<path opacity="0.6" d="M9.29995 16L1.69995 11.6C9.29995 26 9.29995 26 9.29995 26C9.29995 22.9 9.29995 19.3 9.29995 16Z" fill="#B5F0E5"/>
<path opacity="0.6" d="M16.9 11.7L17.1 12C19.4 15.6 18.9 20.3 15.8 23.3C14 25.1 11.7 26 9.30005 26C9.30005 26 9.30005 26 16.9 11.7Z" fill="#B5F0E5"/>
<path opacity="0.2" d="M9.30005 16L16.9 11.6C9.30005 26 9.30005 26 9.30005 26C9.30005 22.9 9.30005 19.3 9.30005 16Z" fill="#B5F0E5"/>
<path opacity="0.2" d="M9.30005 6.30005V13.8L15.9 10.1L9.30005 6.30005Z" fill="#B5F0E5"/>
<path opacity="0.6" d="M9.29995 6.30005L2.69995 10.1L9.29995 13.8V6.30005Z" fill="#B5F0E5"/>
<path d="M9.29995 0L2.69995 10.1L9.29995 6.3V0Z" fill="#B5F0E5"/>
<path opacity="0.6" d="M9.30005 6.3L15.9 10.1L9.30005 0V6.3Z" fill="#B5F0E5"/>
</g>
<defs>
<clipPath id="clip0_145_45">
<rect width="18.6" height="26" fill="white"/>
</clipPath>
</defs>
</svg>

<?xml version="1.0" encoding="utf-8"?>
<!-- Generator: Adobe Illustrator 26.0.1, SVG Export Plug-In . SVG Version: 6.00 Build 0)  -->
<svg version="1.1" id="Layer_1" xmlns="http://www.w3.org/2000/svg" xmlns:xlink="http://www.w3.org/1999/xlink" x="0px" y="0px"
	 viewBox="0 0 18.6 26" style="enable-background:new 0 0 18.6 26;" xml:space="preserve">
<style type="text/css">
	.st0{fill:#00A3FF;}
	.st1{opacity:0.6;fill:#00A3FF;enable-background:new    ;}
	.st2{opacity:0.2;fill:#00A3FF;enable-background:new    ;}
</style>
<path class="st0" d="M1.7,11.7L1.5,12c-2.3,3.6-1.8,8.3,1.3,11.3C4.5,25.1,6.9,26,9.3,26C9.3,26,9.3,26,1.7,11.7z"/>
<path class="st1" d="M9.3,16l-7.6-4.4C9.3,26,9.3,26,9.3,26C9.3,22.9,9.3,19.3,9.3,16z"/>
<path class="st1" d="M16.9,11.7l0.2,0.3c2.3,3.6,1.8,8.3-1.3,11.3C14,25.1,11.7,26,9.3,26C9.3,26,9.3,26,16.9,11.7z"/>
<path class="st2" d="M9.3,16l7.6-4.4C9.3,26,9.3,26,9.3,26C9.3,22.9,9.3,19.3,9.3,16z"/>
<path class="st2" d="M9.3,6.3v7.5l6.6-3.7L9.3,6.3z"/>
<path class="st1" d="M9.3,6.3l-6.6,3.8l6.6,3.7V6.3z"/>
<path class="st0" d="M9.3,0L2.7,10.1l6.6-3.8V0z"/>
<path class="st1" d="M9.3,6.3l6.6,3.8L9.3,0V6.3z"/>
</svg>
